X: 1
T: Barralin
R: jig
M: 6/8
L: 1/8
K: Dmaj
agf fga|gfe ~e3|gfe efg|fed ~d2 f/g/|
agf fga|gfe ~e3|gfe ABc|1 ~d3 ~c3:|2 ~d3 ~e3||
|:fed dB/c/d|gfe ~e3|gfe agf|edc ~d2 e|
fed dB/c/d|gfe ~e3|gfe agf|1 Adc ~d2 e:|2 Adc ~d3||
|:eAB cde|fAB cde|gfe aba|~g3 fed|
eAB cde|fAB cde|gfe agf|1 edc ~d3:|2 edc ~d3||

